svg/600/sharp/fit_screen-fill.svg

<svg xmlns="http://www.w3.org/2000/svg" width="48" height="48" viewBox="0 -960 960 960"><path d="M821.13-611.13v-130h-130v-73.566h203.566v203.566H821.13Zm-755.261 0v-203.566H268.87v73.566h-130v130H65.869ZM691.13-145.869v-73.001h130v-130h73.566v203.001H691.13Zm-625.261 0V-348.87h73.001v130h130v73.001H65.869ZM198.87-278.87v-402.26h562.26v402.26H198.87Z"/></svg>

<svg xmlns="http://www.w3.org/2000/svg" width="48" height="48" viewBox="0 -960 960 960"><path d="M821.13-611.13v-130h-130v-73.57H894.7v203.57h-73.57Zm-755.26 0V-814.7h203v73.57h-130v130h-73Zm625.26 465.26v-73h130v-130h73.57v203H691.13Zm-625.26 0v-203h73v130h130v73h-203Zm133-133v-402.26h562.26v402.26H198.87Z"/></svg>
